X:1
T:Title
%%score { ( 1 3 ) | ( 2 4 ) }
L:1/8
M:4/4
K:G
V:1 treble nm="Grand Piano"
V:3 treble 
V:2 bass 
V:4 bass 
V:1
 z4 z2[Q:1/4=100] [B,G][CA] | [DB][DB][DB][DB] [Ec][DB][CA][DB] |[M:3/4] AG GE G2 |[M:1/4] EE | %4
[M:4/4] [B,D][B,D][DG]A BddB |[M:3/4] AA [^CGB][CGA] [FA]2 |[M:1/4] [FA][GB] | %7
[M:4/4] [Ac][Ac][Ac][Ac] [Ac][DFA][DGB][DAc] |[M:3/4] [DBd][DGB] [DGB][^DFA] [EG]2 | %9
[M:1/4] [CEG][G,CE] |[M:17/16] [B,D][B,D][DG]ABd3/2Bc |[M:3/4] [DGB][CDA] [B,DG][A,DF] [G,B,DG]2 | %12
[M:1/4] Bc |[M:4/4] d6 z2 | [GB]2 [FA]4 AB | c6 z2 | [DB]6 z2 | d6 z2 | z CG-[EG-] [EG-][EG]FE | %19
 D2 G2 B3 A |[M:3/4] [B,DG]6 |] %21
V:2
 z4 z2 [G,,D,][G,,D,] | [G,,G,][G,,G,][G,,G,][G,,G,] [G,,G,][G,,G,][G,,G,][G,,G,] | %2
[M:3/4] [C,E,C][C,E,C] [C,E,C][C,G,C] [C,E,C]2 |[M:1/4] [C,G,C][C,G,C] | %4
[M:4/4] [G,,G,][G,,G,][B,,G,][D,F,D][K:treble] [G,G][G,B,G][G,B,G][G,DG] | %5
[M:3/4] [A,^CG][A,CG][K:bass] [A,,A,][A,,A,] [D,D]2 |[M:1/4] [D,D][D,D] | %7
[M:4/4] [D,D][D,D][D,D][D,D] [D,D]C,B,,A,, |[M:3/4] G,,G,, G,,B,, C,2 |[M:1/4] C,C, | %10
[M:17/16] [G,,G,][G,,G,][B,,G,][D,F,D][K:treble][G,G][G,B,G]3/2[G,DG][G,EG] | %11
[M:3/4][K:bass] D,D, D,D, G,,2 |[M:1/4][K:treble] GA |[M:4/4] B4- B[G,B,][G,B,D][G,DG] | %14
 [D,D]2 [D,D]4[K:treble] FG | A6[K:bass] z2 | [G,,G,]G,,B,,D, z2[K:treble] [G,D][G,A,D] | %17
 [G,B,G][G,B,][G,B,][G,B,] [G,B,][G,DG][K:bass][G,CD][G,B,D] | %18
 [C,C][C,G,][C,C][C,C] [C,C][C,C][C,G,D][C,G,C] | [D,G,B,]2 [D,B,D]2 [D,D]3 [D,CD] |[M:3/4] G,,6 |] %21
V:3
 x8 | x8 |[M:3/4] x6 |[M:1/4] x2 |[M:4/4] x8 |[M:3/4] x6 |[M:1/4] x2 |[M:4/4] x8 |[M:3/4] x6 | %9
[M:1/4] x2 |[M:17/16] x17/2 |[M:3/4] x6 |[M:1/4] x2 |[M:4/4] z2 G,G, G,DGB | x8 | %15
 z2 DD DD[DG][DA] | z G,G,G, G,2 Bc | z GGG GBAG | E2 .E2 z4 | x8 |[M:3/4] x6 |] %21
V:4
 x8 | x8 |[M:3/4] x6 |[M:1/4] x2 |[M:4/4] x4[K:treble] x4 |[M:3/4] x2[K:bass] x4 |[M:1/4] x2 | %7
[M:4/4] x8 |[M:3/4] x6 |[M:1/4] x2 |[M:17/16] x4[K:treble] x9/2 |[M:3/4][K:bass] x6 | %12
[M:1/4][K:treble] x2 |[M:4/4] x8 | x6[K:treble] x2 | z2[K:bass] D,D, D,[C,F,][B,,G,][A,,F,] | %16
 x6[K:treble] x2 | x6[K:bass] x2 | x8 | x8 |[M:3/4] x6 |] %21

